X:1
T:PASSING BY
T:PASSING BY
T:Edward Purcell Cockram
C:Edward Purcell Cockram
%%score [ 1 2 3 4 ]
L:1/8
Q:1/4=112
M:2/4
K:G
V:1 treble nm="Soprano" snm="S"
V:2 treble nm="Alto" snm="A"
V:3 treble-8 nm="Tenor" snm="T"
V:4 bass nm="Bass" snm="B"
V:1
!p! B2 BB | A2 d2 | B2 G2 | A3 A | B3 B | B2 A2 | G2 FE | A4 | B2 AA | G2 B2 | d2 G2 | G3 G | %12
w: There is a|la- dy|sweet and|kind, Was|ne'er a|face so|pleas'd my- *|mind;|I did but|see her|pass- ing|by, And|
 c2"^rit." B2 | A2 !fermata!e2 | A2 A2 | G3 z |!mf! B2 BB | A2 d2 | B2 G2 | A3 A | B3 B | B2 A2 | %22
w: yet I|love her|till I|die.|Her grace- ful|mo- tion,|her sweet|smile, Her|wit, her|voice, my|
 G2 FE | A4 | B2 AA | G2 B2 | d2 G2 | G3 G | c2"^rit." B2 | A2 !fermata!e2 | A2 A2 | G3 z | %32
w: heart be- *|guile;|My heart be-|guile, I|know not|why, And|yet I|love her|till I|die.|
!mp! B2 BB | A2 d2 | B2 G2 | A3 A | B3 B | B2 A2 | G2 FE | A4 |!mf! B2 AA | G2 B2 | d2 G2 | G3 G | %44
w: Cu- pid is|wing- ed|and doth|range Her|coun- try|so my|love doth- *|change;|But change she|earth or|change she|sky, Yet|
"^rit." c2 B2 | A2 !fermata!g2 |!p! A2 A2 | G3 z |] %48
w: I will|love her|till I|die.|
V:2
 G2 GG | F2 F2 | G2 D2 | F3 F | G3 D | ^C2 C2 | ^C2 C2 | C4 | D2 FF | FE D2 | =F2 F2 | E3 D | %12
w: There is a|la- dy|sweet and|kind, Was|ne'er a|face so|pleas'd my-|mind;|I- did but|see- * her|pass- ing|by, And|
 EA G2 | E2 !fermata!G2 | GF EF | D3 z | G2 GG | F2 F2 | G2 D2 | F3 F | G3 D | ^C2 C2 | ^C2 C2 | %23
w: yet- * I|love her|till- * I- *|die.|Her grace- ful|mo- tion,|her sweet|smile, Her|wit, her|voice, my|heart be-|
 C4 | D2 FF | FE D2 | =F2 F2 | E3 D | EA G2 | E2 !fermata!G2 | GF EF | D3 z | B,C DE | FG BA | %34
w: guile;|My heart be-|guile,- * I|know not|why, And|yet- * I|love her|till- * I- *|die.|Cu- * pid- *|wing- * ed- *|
 GF ED | (E F2) F | GA GF | EF GF | E2 A,^C | (G2 F2) | GF CC | EF GA | BG ED | E3 D | CE GE | %45
w: and- * doth- *|range- * Her|coun- * try- *|so- * my- *|love doth- *|change;- *|But- * change she|earth- * or- *|change- * she- *|sky, Yet|I- * will- *|
 G2 !fermata!A2 | GF EF | D3 z |] %48
w: love her|till- * I- *|die.|
V:3
 d2 dd | d2 d2 | d2 B2 | d3 d | e3 G | G2 G2 | A2 A2 | (G2 F2) | G2 cc | B2 B2 | B2 B2 | c3 d | %12
w: There is a|la- dy|sweey and|kind, Was|ne'er a|face so|pleas'd my|mind;- *|I did but|see her|pass- ing|by, And|
 f2 d2 | c2 !fermata!^c2 | dc c2 | B3 z | d2 dd | d2 d2 | d2 B2 | d3 d | e3 G | G2 G2 | A2 A2 | %23
w: yet I|love her|till * I|die.|Her grace- ful|mo- tion,|her sweet|smile, Her|wit, her|voice, my|heart be-|
 (G2 F2) | G2 cc | B2 B2 | B2 B2 | c3 d | f2 d2 | c2 !fermata!^c2 | dc c2 | B3 z | z4 | z4 | z4 | %35
w: guile;- *|My heart be-|guile, I|know not|why, And|yet I|love her|till- * I|die.||||
 z2 z d | d2 d2 | ^c2 c2 | ^cA c2 | d4 | d2 fd | B2 d2 | =f2 B2 | c3 B | A2 d2 | c2 !fermata!^c2 | %46
w: Her|coun- try|so my|love- * doth|change;|But change she|earth or|change she|sky, Yet|I will|love her|
 dc c2 | B3 z |] %48
w: till- * I|die.|
V:4
 G,2 B,B, | D2 A,2 | G,2 G,2 | D,3 D, | B,,3 B,, | E,2 E,2 | A,2 F,G, | D,4 | G,,2 D,D, | G,2 G,2 | %10
 G,2 G,,2 | C,3 G, | D,2 B,,2 | C,2 !fermata!A,,2 | D,2 D,2 | G,3 z | G,2 B,B, | D2 A,2 | G,2 G,2 | %19
 D,3 D, | B,,3 B,, | E,2 E,2 | A,2 F,G, | D,4 | G,,2 D,D, | G,2 G,2 | G,2 G,,2 | C,3 G, | %28
 D,2 B,,2 | C,2 !fermata!A,,2 | D,2 D,2 | G,3 z | z4 | z4 | z4 | z4 | z4 | z4 | z4 | z4 | %40
 G,,2 D,F, | G,2 G,2 | G,,2 G,2 | C,3 G, | F,2 G,2 | C,2 !fermata!A,,2 | D,2 D,2 | [G,,G,]3 z |] %48

